icons/1_Primary/Young Platform.svg

<svg width="1024" height="1024" fill="none" xmlns="http://www.w3.org/2000/svg"><g clip-path="url(#a)"><path d="M512 1024c282.77 0 512-229.23 512-512S794.77 0 512 0 0 229.23 0 512s229.23 512 512 512Z" fill="#98DC9A"/><path d="M512 238.46c-151.2 0-274 122.8-274 274s122.8 273.08 274 273.08 273.08-121.88 274-273.08c0-151.21-122.8-274-274-274Zm-60.54 403.19-38.88-38.87 38.87-38.88 38.88 38.87-38.87 38.88Zm154-154.85L586.23 506 567 525.29l-19.24 20.16-38.49 38.49-98.07-98.06 38.49-38.49L509.25 506l96.22-96.22 39.4 38.49-39.41 38.53Z" fill="#fff"/></g><defs><clipPath id="a"><path fill="#fff" d="M0 0h1024v1024H0z"/></clipPath></defs></svg>

<svg width="1024" height="1024" viewBox="0 0 1024 1024" fill="none" xmlns="http://www.w3.org/2000/svg">
<g clip-path="url(#clip0_2_4011)">
<path d="M512 1024C794.77 1024 1024 794.77 1024 512C1024 229.23 794.77 0 512 0C229.23 0 0 229.23 0 512C0 794.77 229.23 1024 512 1024Z" fill="#98DC9A"/>
<path d="M512 238.46C360.8 238.46 238 361.26 238 512.46C238 663.66 360.8 785.54 512 785.54C663.2 785.54 785.08 663.66 786 512.46C786 361.25 663.2 238.46 512 238.46ZM451.46 641.65L412.58 602.78L451.45 563.9L490.33 602.77L451.46 641.65ZM605.46 486.8L586.23 506L567 525.29L547.76 545.45L509.27 583.94L411.2 485.88L449.69 447.39L509.25 506L605.47 409.78L644.87 448.27L605.46 486.8Z" fill="white"/>
</g>
<defs>
<clipPath id="clip0_2_4011">
<rect width="1024" height="1024" fill="white"/>
</clipPath>
</defs>
</svg>
